packages/ffe-icons/icons/filled/md/align_center.svg

<svg xmlns="http://www.w3.org/2000/svg" height="24" viewBox="0 -960 960 960" width="24"><path d="M130.001-450.001q-12.75 0-21.375-8.628-8.625-8.629-8.625-21.384 0-12.756 8.625-21.371 8.625-8.615 21.375-8.615h699.998q12.75 0 21.375 8.628 8.625 8.629 8.625 21.384 0 12.756-8.625 21.371-8.625 8.615-21.375 8.615H130.001Zm196.153-120q-15.365 0-25.759-10.394t-10.394-25.759v-27.692q0-15.365 10.394-25.759t25.759-10.394h307.692q15.365 0 25.759 10.394t10.394 25.759v27.692q0 15.365-10.394 25.759t-25.759 10.394H326.154Zm0 280q-15.365 0-25.759-10.394t-10.394-25.759v-27.692q0-15.365 10.394-25.759t25.759-10.394h307.692q15.365 0 25.759 10.394t10.394 25.759v27.692q0 15.365-10.394 25.759t-25.759 10.394H326.154Z"/></svg>

<svg xmlns="http://www.w3.org/2000/svg" height="24" viewBox="0 -960 960 960" width="24"><path d="M130-450q-12.75 0-21.37-8.63-8.63-8.63-8.63-21.38 0-12.76 8.63-21.37Q117.25-510 130-510h700q12.75 0 21.37 8.63 8.63 8.63 8.63 21.38 0 12.76-8.63 21.37Q842.75-450 830-450H130Zm196.15-120q-15.36 0-25.76-10.39Q290-590.79 290-606.15v-27.7q0-15.36 10.39-25.76Q310.79-670 326.15-670h307.7q15.36 0 25.76 10.39Q670-649.21 670-633.85v27.7q0 15.36-10.39 25.76Q649.21-570 633.85-570h-307.7Zm0 280q-15.36 0-25.76-10.39Q290-310.79 290-326.15v-27.7q0-15.36 10.39-25.76Q310.79-390 326.15-390h307.7q15.36 0 25.76 10.39Q670-369.21 670-353.85v27.7q0 15.36-10.39 25.76Q649.21-290 633.85-290h-307.7Z"/></svg>
